X: 39905
T: Thomas Burke
R: hornpipe
M: 4/4
K: Gmajor
dc|B2AG Bc d2|D2 G2 G2 c2|BcdB edcB|A6dc|
B2d2c2e2|d2g2gfed|efge f/g/a gf|g6d2|
ga b2b2ab|gagf e2fg|abag fgfe|d6ef|
g2G2G2ed|e2E2E2e2|edcB cBAG|G6Bc|
dedc BcdB|g2G2G2EF|GAGF EFGE|AGFE D2GA|
B2Bc BAGF|E2g2f2ed|eged BABd|e6 ef|
g2gf e2ef|gafg e2d/e/f|gfed edcB|{B}A6A/B/c|
B2B/c/d ef g2|fgaf gfgd|edcB cBAG|G6ef|
gagf edef|gafg e2d/e/f|gagf edcB|A6A/B/c|
BcdB efge|fgaf gfgd|edcB cBAG|G6||

